icon-themes/breeze_svg/cmd/32/patternfield.svg

<svg viewBox="0 0 32 32" xmlns="http://www.w3.org/2000/svg"><path d="m5 4v21h-2v1h2v2h1v-2h11 7v2h1v-2h3v-1h-3v-7-14h-1v14 7h-7-11v-21zm5 4v2h-2v1h2v8h-2v1h2v2h1v-2h8v2h1v-2h2v-1h-2v-8h2v-1h-2v-2h-1v2h-8v-2zm1 3h8v8h-8z" fill="#4d4d4d"/></svg>

<svg xmlns="http://www.w3.org/2000/svg" viewBox="0 0 32 32">
 <path 
     style="fill:#4d4d4d" 
     d="M 5 4 L 5 25 L 3 25 L 3 26 L 5 26 L 5 28 L 6 28 L 6 26 L 17 26 L 24 26 L 24 28 L 25 28 L 25 26 L 28 26 L 28 25 L 25 25 L 25 18 L 25 4 L 24 4 L 24 18 L 24 25 L 17 25 L 6 25 L 6 4 L 5 4 z M 10 8 L 10 10 L 8 10 L 8 11 L 10 11 L 10 19 L 8 19 L 8 20 L 10 20 L 10 22 L 11 22 L 11 20 L 19 20 L 19 22 L 20 22 L 20 20 L 22 20 L 22 19 L 20 19 L 20 11 L 22 11 L 22 10 L 20 10 L 20 8 L 19 8 L 19 10 L 11 10 L 11 8 L 10 8 z M 11 11 L 19 11 L 19 19 L 11 19 L 11 11 z "
     />
</svg>
